public/assets/icons/dashboard.svg

<svg width="26" height="26" viewBox="0 0 26 26" fill="none" xmlns="http://www.w3.org/2000/svg">
<path d="M10.5167 2.16602H3.74582C2.87467 2.16602 2.16602 2.87467 2.16602 3.74582V7.80832C2.16602 8.67964 2.87467 9.38829 3.74582 9.38829H10.5167C11.388 9.38829 12.0966 8.67964 12.0966 7.80832V3.74582C12.0966 2.87467 11.388 2.16602 10.5167 2.16602ZM10.5167 11.1937H3.74582C2.87467 11.1937 2.16602 11.9024 2.16602 12.7737V22.2529C2.16602 23.124 2.87467 23.8327 3.74582 23.8327H10.5167C11.388 23.8327 12.0966 23.124 12.0966 22.2529V12.7737C12.0966 11.9024 11.388 11.1937 10.5167 11.1937ZM22.2529 16.6104H15.482C14.6107 16.6104 13.9021 17.3191 13.9021 18.1904V22.2529C13.9021 23.124 14.6107 23.8327 15.482 23.8327H22.2529C23.124 23.8327 23.8327 23.124 23.8327 22.2529V18.1904C23.8327 17.3191 23.124 16.6104 22.2529 16.6104ZM22.2529 2.16602H15.482C14.6107 2.16602 13.9021 2.87467 13.9021 3.74582V13.225C13.9021 14.0963 14.6107 14.805 15.482 14.805H22.2529C23.124 14.805 23.8327 14.0963 23.8327 13.225V3.74582C23.8327 2.87467 23.124 2.16602 22.2529 2.16602Z" fill="white"/>
</svg>

<svg xmlns="http://www.w3.org/2000/svg" width="26" height="26" fill="none"><path fill="#fff" d="M10.517 2.166H3.746c-.871 0-1.58.709-1.58 1.58v4.062c0 .872.709 1.58 1.58 1.58h6.77c.872 0 1.58-.708 1.58-1.58V3.746c0-.871-.708-1.58-1.58-1.58m0 9.028H3.746c-.871 0-1.58.708-1.58 1.58v9.479c0 .871.709 1.58 1.58 1.58h6.77c.872 0 1.58-.709 1.58-1.58v-9.48c0-.87-.708-1.58-1.58-1.58m11.736 5.416h-6.771c-.871 0-1.58.71-1.58 1.58v4.063c0 .871.709 1.58 1.58 1.58h6.77c.872 0 1.58-.709 1.58-1.58V18.19c0-.87-.708-1.58-1.58-1.58m0-14.444h-6.771c-.871 0-1.58.709-1.58 1.58v9.479c0 .871.709 1.58 1.58 1.58h6.77c.872 0 1.58-.709 1.58-1.58v-9.48c0-.87-.708-1.579-1.58-1.579"/></svg>
